X:704
T:Spring-Garden
C:John Playford, 1657
S:Colin Hume's website,  colinhume.com  - chords can also be printed below the stave.
Q:3/8=96
M:6/8
K:Dm
%%textfont Times-Roman-Bold 20
%%center 4 B's in each of the three figures.
%%stretchstaff 0
P:A
|: "F"A2A "C/E"c2c | "Dm"d3/e/d "A7/C#"a3 | "Dm"A3 "C"c3 | "Bb"d3/e/d "A"^cA2 :|
P:B
|: "F"f2f "C/E"g3/f/e | "F"fa2 "C"g2e | "Dm"f2f "C"g3/f/e | "F"fa2 "C/E"g2e |\
"Dm"fga "C"g3/f/e | "Bb"ded "A7"f3/g/a | "Dm"A3 "C"c3 | "Bb"d3/e/d "A"^cA2 :|

